Hatter-kde-dark/actions/24/zone-out.svg

<svg xmlns="http://www.w3.org/2000/svg" viewBox="0 0 24 24">
  <defs id="defs3051">
    <style type="text/css" id="current-color-scheme">
      .ColorScheme-Text {
        color:#dedede;
      }
      </style>
  </defs><g transform="translate(1,1)">
 <path 
    style="fill:currentColor;fill-opacity:1;stroke:none" 
    d="m 15,3 0,11.050781 A 2.5,2.5 0 0 1 17,16.5 2.5,2.5 0 0 1 14.5,19 2.5,2.5 0 0 1 12,16.5 2.5,2.5 0 0 1 14,14.054688 L 14,3 15,3 Z M 7.707031,6 10.5,8.7929688 11.207031,9.5 10.5,10.207031 7.707031,13 7,12.292969 9.292969,10 3,10 3,9 5,9 9.292969,9 7,6.7070312 7.707031,6 Z M 14.5,15 A 1.5,1.5 0 0 0 13,16.5 1.5,1.5 0 0 0 14.5,18 1.5,1.5 0 0 0 16,16.5 1.5,1.5 0 0 0 14.5,15 Z"
    class="ColorScheme-Text"
    />  
</g></svg>

<?xml version="1.0" encoding="UTF-8"?>
<svg viewBox="0 0 24 24" xmlns="http://www.w3.org/2000/svg">
 <defs id="defs3051">
  <style id="current-color-scheme" type="text/css">.ColorScheme-Text {
        color:#dedede;
      }</style>
 </defs>
 <g transform="translate(1,1)">
  <path class="ColorScheme-Text" d="m15 3v11.051a2.5 2.5 0 0 1 2 2.4492 2.5 2.5 0 0 1-2.5 2.5 2.5 2.5 0 0 1-2.5-2.5 2.5 2.5 0 0 1 2-2.4453v-11.055h1zm-7.293 3 3.5 3.5-3.5 3.5-0.70703-0.70703 2.293-2.293h-6.293v-1h2 4.293l-2.293-2.293 0.70703-0.70703zm6.793 9a1.5 1.5 0 0 0-1.5 1.5 1.5 1.5 0 0 0 1.5 1.5 1.5 1.5 0 0 0 1.5-1.5 1.5 1.5 0 0 0-1.5-1.5z" fill="currentColor"/>
 </g>
</svg>
